apps/www/public/images/career/icons/remote-light.svg

<svg width="49" height="49" viewBox="0 0 49 49" fill="none" xmlns="http://www.w3.org/2000/svg">
<rect x="0.615234" y="0.583008" width="48" height="48" rx="8" fill="#DDF3E4"/>
<rect x="16.1045" y="38.4268" width="3.88525" height="3.84033" stroke="#92CEAC" stroke-width="2" stroke-miterlimit="10" stroke-linejoin="bevel"/>
<rect x="29.4526" y="38.4268" width="3.88525" height="3.84033" stroke="#92CEAC" stroke-width="2" stroke-miterlimit="10" stroke-linejoin="bevel"/>
<path d="M22.5518 15.5386L26.6782 19.665" stroke="#92CEAC" stroke-width="2.01025" stroke-miterlimit="10" stroke-linejoin="bevel"/>
<path d="M26.6777 15.5383L22.5513 19.6648" stroke="#92CEAC" stroke-width="2.01025" stroke-miterlimit="10" stroke-linejoin="bevel"/>
<path d="M38.1867 19.1108V14.9072C38.1867 11.5935 35.5004 8.90718 32.1867 8.90718H17.0444C13.7307 8.90718 11.0444 11.5935 11.0444 14.9072V19.1108" stroke="#299764" stroke-width="2" stroke-miterlimit="10" stroke-linejoin="bevel"/>
<path d="M39.1068 26.103L38.956 25.1144L38.1068 26.103H39.1068ZM34.7702 22.3399L35.7701 22.3574L35.7702 22.3508L34.7702 22.3399ZM34.7699 25.571L34.6153 26.559L35.7699 25.571H34.7699ZM32.677 25.2434L32.8317 24.2555L32.677 25.2434ZM16.5565 25.2434L16.7112 26.2314L16.5565 25.2434ZM14.4606 25.5715H13.4606L14.6152 26.5595L14.4606 25.5715ZM14.4606 22.3787H15.4606L15.4606 22.3762L14.4606 22.3787ZM14.4605 22.3673L15.4605 22.3649L15.4605 22.3635L14.4605 22.3673ZM10.1237 25.9776H11.1237L10.308 24.9948L10.1237 25.9776ZM10.1273 33.7552L11.1273 33.7552L11.1256 33.698L10.1273 33.7552ZM10.1273 33.9591L9.12728 33.9591V33.9591L10.1273 33.9591ZM39.1064 33.9591L38.1064 33.9591L39.1064 33.9591ZM39.1064 33.6712L38.1066 33.6522L38.1064 33.6712L39.1064 33.6712ZM41.2988 22.3818C41.2988 23.7648 40.2824 24.9121 38.956 25.1144L39.2576 27.0916C41.546 26.7425 43.2988 24.7678 43.2988 22.3818H41.2988ZM38.5344 19.6174C40.0612 19.6174 41.2988 20.8551 41.2988 22.3818H43.2988C43.2988 19.7505 41.1657 17.6174 38.5344 17.6174V19.6174ZM35.7702 22.3508C35.7867 20.8385 37.018 19.6174 38.5344 19.6174V17.6174C35.9208 17.6174 33.7988 19.7219 33.7703 22.329L35.7702 22.3508ZM35.7699 22.3787C35.7699 22.3716 35.77 22.3645 35.7701 22.3574L33.7704 22.3225C33.7701 22.3411 33.7699 22.3598 33.7699 22.3787H35.7699ZM35.7699 25.571V22.3787H33.7699V25.571H35.7699ZM32.5224 26.2314L34.6153 26.559L34.9245 24.583L32.8317 24.2555L32.5224 26.2314ZM16.7112 26.2314C21.9497 25.4115 27.2839 25.4115 32.5224 26.2314L32.8317 24.2555C27.3882 23.4035 21.8454 23.4035 16.4019 24.2555L16.7112 26.2314ZM14.6152 26.5595L16.7112 26.2314L16.4019 24.2555L14.3059 24.5835L14.6152 26.5595ZM13.4606 22.3819V25.5715H15.4606V22.3819H13.4606ZM13.4606 22.3787V22.3819H15.4606V22.3787H13.4606ZM13.4605 22.3698L13.4606 22.3811L15.4606 22.3762L15.4605 22.3649L13.4605 22.3698ZM10.8021 19.7234C12.2668 19.7234 13.4548 20.9079 13.4605 22.3712L15.4605 22.3635C15.4505 19.7991 13.3687 17.7234 10.8021 17.7234V19.7234ZM8.14355 22.3819C8.14355 20.9136 9.33381 19.7234 10.8021 19.7234V17.7234C8.22924 17.7234 6.14355 19.8091 6.14355 22.3819H8.14355ZM10.308 24.9948C9.07582 24.7637 8.14355 23.6806 8.14355 22.3819H6.14355C6.14355 24.6607 7.77871 26.5554 9.93939 26.9605L10.308 24.9948ZM11.1237 33.6292V25.9776H9.12367V33.6292H11.1237ZM11.1256 33.698C11.1243 33.6753 11.1237 33.6524 11.1237 33.6292H9.12367C9.12367 33.6906 9.12543 33.7517 9.12891 33.8124L11.1256 33.698ZM11.1273 33.9591L11.1273 33.7552L9.12727 33.7552L9.12728 33.9591L11.1273 33.9591ZM14.5951 37.4269C12.6799 37.4269 11.1273 35.8743 11.1273 33.9591L9.12728 33.9591C9.1273 36.9789 11.5753 39.4269 14.5951 39.4269V37.4269ZM34.6386 37.4269H14.5951V39.4269H34.6386V37.4269ZM38.1064 33.9591C38.1064 35.8743 36.5538 37.4269 34.6386 37.4269V39.4269C37.6584 39.4269 40.1064 36.9789 40.1064 33.9591L38.1064 33.9591ZM38.1064 33.6712L38.1064 33.9591L40.1064 33.9591L40.1064 33.6712L38.1064 33.6712ZM38.1068 33.6292C38.1068 33.6369 38.1067 33.6446 38.1066 33.6522L40.1062 33.6902C40.1066 33.6699 40.1068 33.6496 40.1068 33.6292H38.1068ZM38.1068 26.103V33.6292H40.1068V26.103H38.1068Z" fill="#299764"/>
<path d="M14.4453 25.6421L16.4176 25.3003C21.8418 24.3602 27.3872 24.3602 32.8114 25.3003L34.7837 25.6421V29.8585H14.4453V25.6421Z" fill="#5BB98C" stroke="#299764" stroke-width="2" stroke-miterlimit="10" stroke-linejoin="bevel"/>
</svg>

<svg xmlns="http://www.w3.org/2000/svg" width="49" height="49" fill="none" viewBox="0 0 49 49"><rect width="48" height="48" x=".615" y=".583" fill="#ddf3e4" rx="8"/><path stroke="#92ceac" stroke-linejoin="bevel" stroke-miterlimit="10" stroke-width="2" d="M16.105 38.427h3.885v3.84h-3.885zM29.453 38.427h3.885v3.84h-3.885z"/><path stroke="#92ceac" stroke-linejoin="bevel" stroke-miterlimit="10" stroke-width="2.01" d="m22.552 15.539 4.126 4.126M26.678 15.538l-4.127 4.127"/><path stroke="#299764" stroke-linejoin="bevel" stroke-miterlimit="10" stroke-width="2" d="M38.187 19.11v-4.203a6 6 0 0 0-6-6H17.044a6 6 0 0 0-6 6v4.204"/><path fill="#299764" d="m39.107 26.103-.151-.989-.85.989zM34.77 22.34l1 .017v-.006zm0 3.231-.155.988 1.155-.988zm-2.093-.328.155-.987zm-16.12 0 .154.988zm-2.096.329h-1l1.154.988zm0-3.193h1v-.003zm0-.012 1-.002v-.002zm-4.337 3.61h1l-.816-.982zm.003 7.778h1l-.001-.057zm0 .204h-1zm28.98 0h-1zm0-.288-1-.019v.02zm2.192-11.29a2.765 2.765 0 0 1-2.343 2.733l.302 1.978a4.765 4.765 0 0 0 4.04-4.71zm-2.765-2.764a2.764 2.764 0 0 1 2.765 2.765h2a4.764 4.764 0 0 0-4.765-4.765zm-2.764 2.734a2.764 2.764 0 0 1 2.764-2.734v-2a4.764 4.764 0 0 0-4.764 4.712zm0 .028v-.022l-2-.034v.056zm0 3.192v-3.192h-2v3.192zm-3.248.66 2.093.328.31-1.976-2.093-.327zm-15.81 0a51.1 51.1 0 0 1 15.81 0l.31-1.976a53.1 53.1 0 0 0-16.43 0zm-2.097.328 2.096-.328-.31-1.976-2.095.329zm-1.154-4.177v3.19h2v-3.19zm0-.003v.003h2v-.003zm0-.01v.012l2-.005v-.011zm-2.659-2.646a2.66 2.66 0 0 1 2.659 2.648l2-.008a4.66 4.66 0 0 0-4.659-4.64zm-2.658 2.659a2.66 2.66 0 0 1 2.658-2.659v-2a4.66 4.66 0 0 0-4.658 4.659zm2.164 2.613a2.66 2.66 0 0 1-2.164-2.613h-2a4.66 4.66 0 0 0 3.795 4.578zm.816 8.634v-7.651h-2v7.651zm.002.069-.002-.069h-2q0 .093.005.183zm.001.261v-.204h-2v.204zm3.468 3.468a3.47 3.47 0 0 1-3.468-3.468h-2a5.47 5.47 0 0 0 5.468 5.468zm20.044 0H14.595v2H34.64zm3.467-3.468a3.47 3.47 0 0 1-3.467 3.468v2a5.47 5.47 0 0 0 5.467-5.468zm0-.288v.288h2v-.288zm0-.042v.023l2 .038v-.06zm0-7.526v7.526h2v-7.526z"/><path fill="#5bb98c" stroke="#299764" stroke-linejoin="bevel" stroke-miterlimit="10" stroke-width="2" d="m14.445 25.642 1.973-.342a48 48 0 0 1 16.393 0l1.973.342v4.217H14.445z"/></svg>
